icon-themes/breeze_svg/cmd/32/glueeditmode.svg

<?xml version="1.0" encoding="UTF-8" standalone="no"?>
<svg
   xmlns:dc="http://purl.org/dc/elements/1.1/"
   xmlns:cc="http://creativecommons.org/ns#"
   xmlns:rdf="http://www.w3.org/1999/02/22-rdf-syntax-ns#"
   xmlns:svg="http://www.w3.org/2000/svg"
   xmlns="http://www.w3.org/2000/svg"
   xmlns:sodipodi="http://sodipodi.sourceforge.net/DTD/sodipodi-0.dtd"
   xmlns:inkscape="http://www.inkscape.org/namespaces/inkscape"
   width="32"
   height="32"
   viewBox="0 0 32 32"
   id="svg2"
   version="1.1"
   inkscape:version="0.91 r13725"
   sodipodi:docname="glueeditmode.svg">
  <metadata
     id="metadata14">
    <rdf:RDF>
      <cc:Work
         rdf:about="">
        <dc:format>image/svg+xml</dc:format>
        <dc:type
           rdf:resource="http://purl.org/dc/dcmitype/StillImage" />
        <dc:title></dc:title>
      </cc:Work>
    </rdf:RDF>
  </metadata>
  <defs
     id="defs12" />
  <sodipodi:namedview
     pagecolor="#ffffff"
     bordercolor="#666666"
     borderopacity="1"
     objecttolerance="10"
     gridtolerance="10"
     guidetolerance="10"
     inkscape:pageopacity="0"
     inkscape:pageshadow="2"
     inkscape:window-width="1883"
     inkscape:window-height="1051"
     id="namedview10"
     showgrid="true"
     inkscape:snap-bbox="true"
     inkscape:object-nodes="true"
     inkscape:zoom="20.85965"
     inkscape:cx="16.181486"
     inkscape:cy="14.765298"
     inkscape:window-x="33"
     inkscape:window-y="0"
     inkscape:window-maximized="1"
     inkscape:current-layer="svg2">
    <inkscape:grid
       type="xygrid"
       id="grid4171" />
  </sodipodi:namedview>
  <path
     style="color:#000000;overflow:visible;isolation:auto;mix-blend-mode:normal;solid-color:#000000;fill:#4d4d4d;fill-rule:evenodd"
     d="M 4 4 L 4 28 L 17 28 L 17 27 L 5 27 L 5 5 L 27 5 L 27 25 L 28 25 L 28 4 L 4 4 z "
     id="path6" />
  <path
     inkscape:connector-curvature="0"
     style="color:#000000;overflow:visible;isolation:auto;mix-blend-mode:normal;solid-color:#000000;fill:#1d99f3;fill-rule:evenodd"
     d="M 20,16"
     overflow="visible"
     id="path8" />
  <path
     inkscape:connector-curvature="0"
     style="color:#000000;clip-rule:nonzero;display:inline;overflow:visible;visibility:visible;opacity:1;isolation:auto;mix-blend-mode:normal;color-interpolation:sRGB;color-interpolation-filters:linearRGB;solid-color:#000000;solid-opacity:1;fill:#1d99f3;fill-opacity:1;fill-rule:evenodd;stroke:none;stroke-width:2;stroke-linecap:square;stroke-linejoin:miter;stroke-miterlimit:4;stroke-dasharray:none;stroke-dashoffset:0;stroke-opacity:0.4848485;color-rendering:auto;image-rendering:auto;shape-rendering:auto;text-rendering:auto;enable-background:accumulate"
     d="m 11,16 a 5,5 0 0 0 5,5 5,5 0 0 0 5,-5 5,5 0 0 0 -5,-5 5,5 0 0 0 -5,5 z m 1,0 a 4,4 0 0 1 4,-4 4,4 0 0 1 4,4 4,4 0 0 1 -4,4 4,4 0 0 1 -4,-4 z"
     id="path4137" />
  <path
     inkscape:connector-curvature="0"
     style="fill:#4d4d4d;fill-opacity:1;stroke:none"
     d="m 19,26 c -0.552285,0 -1,0.4477 -1,1 0,0.5523 0.447715,1 1,1 0.552285,0 1,-0.4477 1,-1 0,-0.5523 -0.447715,-1 -1,-1 z m 4,0 c -0.552285,0 -1,0.4477 -1,1 0,0.5523 0.447715,1 1,1 0.552285,0 1,-0.4477 1,-1 0,-0.5523 -0.447715,-1 -1,-1 z m 4,0 c -0.552285,0 -1,0.4477 -1,1 0,0.5523 0.447715,1 1,1 0.552285,0 1,-0.4477 1,-1 0,-0.5523 -0.447715,-1 -1,-1 z"
     id="rect4108-9" />
</svg>

<svg xmlns="http://www.w3.org/2000/svg" viewBox="0 0 32 32">
 <path 
     style="fill:#1d99f3" 
     d="M 16 11 A 5 5 0 0 0 11 16 A 5 5 0 0 0 16 21 A 5 5 0 0 0 21 16 A 5 5 0 0 0 16 11 z M 16 12 A 4 4 0 0 1 20 16 A 4 4 0 0 1 16 20 A 4 4 0 0 1 12 16 A 4 4 0 0 1 16 12 z "
     />
 <path 
     style="fill:#4d4d4d" 
     d="M 4 4 L 4 28 L 17 28 L 17 27 L 5 27 L 5 5 L 27 5 L 27 25 L 28 25 L 28 4 L 4 4 z M 19 26 C 18.447715 26 18 26.4477 18 27 C 18 27.5523 18.447715 28 19 28 C 19.552285 28 20 27.5523 20 27 C 20 26.4477 19.552285 26 19 26 z M 23 26 C 22.447715 26 22 26.4477 22 27 C 22 27.5523 22.447715 28 23 28 C 23.552285 28 24 27.5523 24 27 C 24 26.4477 23.552285 26 23 26 z M 27 26 C 26.447715 26 26 26.4477 26 27 C 26 27.5523 26.447715 28 27 28 C 27.552285 28 28 27.5523 28 27 C 28 26.4477 27.552285 26 27 26 z "
     />
</svg>
